icons/svgs/file-outline.svg

<svg width="24" height="24" viewBox="0 0 24 24" fill="none" xmlns="http://www.w3.org/2000/svg">
<path d="M17.5 20.125C17.8125 20.125 18.125 19.8516 18.125 19.5V8.25H15C14.2969 8.25 13.75 7.70312 13.75 7V3.875H7.5C7.14844 3.875 6.875 4.1875 6.875 4.5V19.5C6.875 19.8516 7.14844 20.125 7.5 20.125H17.5ZM5 4.5C5 3.13281 6.09375 2 7.5 2H13.9453C14.6094 2 15.2344 2.27344 15.7031 2.74219L19.2578 6.29688C19.7266 6.76562 20 7.39062 20 8.05469V19.5C20 20.9062 18.8672 22 17.5 22H7.5C6.09375 22 5 20.9062 5 19.5V4.5Z" fill="black"/>
</svg>

<svg xmlns="http://www.w3.org/2000/svg" width="24" height="24" fill="currentColor" class="icon-file-outline" viewBox="0 0 24 24">
  <mask id="a" width="15" height="20" x="5" y="2" maskUnits="userSpaceOnUse" style="mask-type:alpha">
    <path d="M17.5 20.125a.64.64 0 0 0 .625-.625V8.25H15c-.703 0-1.25-.547-1.25-1.25V3.875H7.5a.64.64 0 0 0-.625.625v15c0 .352.273.625.625.625zM5 4.5C5 3.133 6.094 2 7.5 2h6.445c.664 0 1.29.273 1.758.742l3.555 3.555c.469.469.742 1.094.742 1.758V19.5c0 1.406-1.133 2.5-2.5 2.5h-10A2.47 2.47 0 0 1 5 19.5z"/>
  </mask>
  <g mask="url(#a)">
    <path d="M0 0h24v24H0z"/>
  </g>
</svg>
